src/lib/packages/icons/src/assets/line/volume-high-slash.svg

<svg width="24" height="24" viewBox="0 0 24 24" fill="none" xmlns="http://www.w3.org/2000/svg">
<path d="M13.75 15V19.3301C13.75 20.2811 13.215 21.121 12.353 21.521C12.022 21.675 11.673 21.75 11.327 21.75C10.768 21.75 10.219 21.5541 9.76697 21.1731L8.224 19.8611C7.909 19.5921 7.87004 19.1189 8.13904 18.8039C8.40804 18.4889 8.88102 18.451 9.19702 18.719L10.7371 20.029C11.0171 20.266 11.3859 20.3159 11.7209 20.1609C12.0519 20.0069 12.25 19.6961 12.25 19.3301V15C12.25 14.586 12.586 14.25 13 14.25C13.414 14.25 13.75 14.586 13.75 15ZM18.455 10.04C18.335 9.64503 17.923 9.42196 17.517 9.54296C17.121 9.66496 16.899 10.084 17.021 10.48C17.588 12.328 17.085 14.3319 15.708 15.7099C15.415 16.0029 15.415 16.478 15.708 16.771C15.854 16.917 16.046 16.991 16.238 16.991C16.43 16.991 16.6219 16.918 16.7679 16.771C18.5399 14.999 19.187 12.42 18.455 10.04ZM21.436 6.85888C21.238 6.49588 20.784 6.36298 20.417 6.56298C20.055 6.76198 19.922 7.21804 20.121 7.58104C22.077 11.145 21.426 15.6511 18.538 18.5391C18.245 18.8321 18.245 19.3071 18.538 19.6001C18.684 19.7461 18.876 19.8201 19.068 19.8201C19.26 19.8201 19.452 19.7471 19.598 19.6001C22.955 16.2431 23.711 11.0039 21.436 6.85888ZM21.53 3.53002L3.53003 21.53C3.38403 21.676 3.192 21.75 3 21.75C2.808 21.75 2.61597 21.677 2.46997 21.53C2.17697 21.237 2.17697 20.762 2.46997 20.469L5.18994 17.749H3.50098C2.26098 17.749 1.25098 16.74 1.25098 15.499V8.49901C1.25098 7.25801 2.26098 6.24901 3.50098 6.24901H5.271C5.565 6.24901 5.85205 6.14387 6.08105 5.95287L9.76697 2.82689C10.499 2.20889 11.489 2.07504 12.355 2.47704C13.217 2.87704 13.752 3.71696 13.752 4.66796V9.18798L20.472 2.46801C20.765 2.17501 21.24 2.17501 21.533 2.46801C21.826 2.76101 21.823 3.23702 21.53 3.53002ZM12.25 4.66991C12.25 4.30391 12.0519 3.9931 11.7209 3.8391C11.3839 3.6831 11.017 3.73389 10.734 3.97289L7.04602 7.10106C6.54402 7.52006 5.915 7.74901 5.271 7.74901H3.50098C3.08798 7.74901 2.75098 8.08501 2.75098 8.49901V15.499C2.75098 15.913 3.08798 16.249 3.50098 16.249H5.271C5.673 16.249 6.06395 16.3481 6.42395 16.5161L12.251 10.689V4.66991H12.25Z" fill="currentColor"/>
</svg>

<svg xmlns="http://www.w3.org/2000/svg" width="24" height="24" fill="none"><path fill="currentColor" d="M13.75 15v4.33c0 .951-.535 1.791-1.397 2.191a2.411 2.411 0 0 1-2.586-.348l-1.543-1.312a.75.75 0 1 1 .973-1.142l1.54 1.31c.28.237.649.287.984.132a.896.896 0 0 0 .529-.83V15a.75.75 0 0 1 1.5 0Zm4.705-4.96a.75.75 0 1 0-1.434.44 5.221 5.221 0 0 1-1.313 5.23.75.75 0 0 0 1.06 1.061 6.712 6.712 0 0 0 1.687-6.731Zm2.981-3.181a.75.75 0 0 0-1.315.722c1.956 3.564 1.305 8.07-1.583 10.958a.75.75 0 0 0 1.06 1.061c3.357-3.357 4.113-8.596 1.838-12.741Zm.094-3.329-18 18a.748.748 0 0 1-1.06 0 .75.75 0 0 1 0-1.061l2.72-2.72H3.5a2.253 2.253 0 0 1-2.25-2.25v-7c0-1.241 1.01-2.25 2.25-2.25h1.77c.294 0 .581-.105.81-.296l3.686-3.126a2.403 2.403 0 0 1 2.588-.35c.862.4 1.397 1.24 1.397 2.191v4.52l6.72-6.72A.75.75 0 1 1 21.53 3.53Zm-9.28 1.14a.896.896 0 0 0-.53-.83.904.904 0 0 0-.986.133L7.046 7.1a2.774 2.774 0 0 1-1.775.648h-1.77a.75.75 0 0 0-.75.75v7c0 .414.337.75.75.75h1.77c.402 0 .793.1 1.153.267l5.827-5.827v-6.02h-.001Z"/></svg>
